icons/line/scissors.svg

<svg width="24" height="24" viewBox="0 0 24 24" fill="none" xmlns="http://www.w3.org/2000/svg">
<path fill-rule="evenodd" clip-rule="evenodd" d="M7 5C5.89543 5 5 5.89543 5 7C5 8.10457 5.89543 9 7 9C8.10457 9 9 8.10457 9 7C9 5.89543 8.10457 5 7 5ZM3 7C3 4.79086 4.79086 3 7 3C9.20914 3 11 4.79086 11 7C11 7.74181 10.7981 8.43645 10.4462 9.03197L12 10.5858L18.2929 4.29289C18.6834 3.90237 19.3166 3.90237 19.7071 4.29289C20.0976 4.68342 20.0976 5.31658 19.7071 5.70711L12.7071 12.7071L10.4462 14.968C10.7981 15.5635 11 16.2582 11 17C11 19.2091 9.20914 21 7 21C4.79086 21 3 19.2091 3 17C3 14.7909 4.79086 13 7 13C7.74181 13 8.43645 13.2019 9.03197 13.5538L10.5858 12L9.03197 10.4462C8.43645 10.7981 7.74181 11 7 11C4.79086 11 3 9.20914 3 7ZM7 15C5.89543 15 5 15.8954 5 17C5 18.1046 5.89543 19 7 19C8.10457 19 9 18.1046 9 17C9 15.8954 8.10457 15 7 15ZM14.7071 13.2929C14.3166 12.9024 13.6834 12.9024 13.2929 13.2929C12.9024 13.6834 12.9024 14.3166 13.2929 14.7071L18.2929 19.7071C18.6834 20.0976 19.3166 20.0976 19.7071 19.7071C20.0976 19.3166 20.0976 18.6834 19.7071 18.2929L14.7071 13.2929Z" fill="currentColor"/>
</svg>

<svg width="24" height="24" fill="none" xmlns="http://www.w3.org/2000/svg"><path fill-rule="evenodd" clip-rule="evenodd" d="M7 5a2 2 0 100 4 2 2 0 000-4zM3 7a4 4 0 117.446 2.032L12 10.586l6.293-6.293a1 1 0 111.414 1.414l-7 7-2.26 2.261a4 4 0 11-1.414-1.414L10.585 12l-1.554-1.554A4 4 0 013 7zm4 8a2 2 0 100 4 2 2 0 000-4zm7.707-1.707a1 1 0 00-1.414 1.414l5 5a1 1 0 001.414-1.414l-5-5z" fill="currentColor"/></svg>
